client/public/img/game/shared/residues/lily_pad_residue.svg

<?xml version="1.0" encoding="UTF-8" standalone="no"?>
<svg
   version="1.1"
   width="95.167831"
   height="106.66218"
   viewBox="0 0 95.167833 106.66218"
   id="svg11"
   xmlns="http://www.w3.org/2000/svg"
   xmlns:svg="http://www.w3.org/2000/svg">
  <defs
     id="defs11" />
  <g
     transform="matrix(2.0541976,0,0,2.0600409,-608.96142,-317.70137)"
     id="g11"
     style="stroke-width:0.486117">
    <path
       d=""
       fill="#6fa63d"
       stroke="#62742b"
       stroke-width="1.70141"
       id="path1"
       style="mix-blend-mode:normal;fill-rule:nonzero;stroke-linecap:butt;stroke-linejoin:miter;stroke-miterlimit:10;stroke-dasharray:none;stroke-dashoffset:0" />
    <path
       d=""
       fill="#6fa63d"
       stroke="#62742b"
       stroke-width="1.70141"
       id="path2"
       style="mix-blend-mode:normal;fill-rule:nonzero;stroke-linecap:butt;stroke-linejoin:miter;stroke-miterlimit:10;stroke-dasharray:none;stroke-dashoffset:0" />
    <path
       d="m 321.05192,198.0677 c 3.82164,3.3777 -1.87415,6.70218 -6.23433,7.05372 -4.36018,0.35155 -9.28905,-3.17871 -6.79247,-6.00342 2.49658,-2.82471 9.20516,-4.428 13.0268,-1.0503 z"
       fill="#6bb02f"
       stroke="#62742b"
       stroke-width="1.70141"
       id="path3"
       style="mix-blend-mode:normal;fill-rule:nonzero;stroke-linecap:butt;stroke-linejoin:miter;stroke-miterlimit:10;stroke-dasharray:none;stroke-dashoffset:0" />
    <path
       d="m 315.45971,184.84881 c 0,3.73269 -4.21709,6.97327 -8.15001,6.97327 -3.93292,0 -7.71418,-1.26421 -7.71418,-5.14279 0,-3.87858 3.7686,-7.06044 7.71418,-7.06044 3.94558,0 8.15001,1.49727 8.15001,5.22996 z"
       fill="#6fa63d"
       stroke="#62742b"
       stroke-width="1.70141"
       id="path4"
       style="mix-blend-mode:normal;fill-rule:nonzero;stroke-linecap:butt;stroke-linejoin:miter;stroke-miterlimit:10;stroke-dasharray:none;stroke-dashoffset:0" />
    <path
       d="m 340.96212,188.09916 c 0.55555,0.10483 1.03685,0.61639 0.95188,1.06665 -0.31675,1.6787 -10.70027,10.31085 -12.26809,10.01502 -0.48073,-0.0907 -0.90079,-0.39727 -0.82906,-0.77737 0.42137,-2.23314 1.88883,-10.01026 2.14955,-11.39204 0.0774,-0.40998 0.46961,-0.70972 1.00201,-0.60927 0,0 7.66994,1.44723 8.99371,1.69701 z"
       fill="#6fa63d"
       stroke="#62742b"
       stroke-width="1.70141"
       id="path5"
       style="mix-blend-mode:normal;fill-rule:nonzero;stroke-linecap:butt;stroke-linejoin:miter;stroke-miterlimit:10;stroke-dasharray:none;stroke-dashoffset:0" />
    <path
       d="m 297.5305,171.42313 c 1.47209,-1.60724 4.99741,-5.45621 5.71076,-6.23505 0.24682,-0.26948 0.63784,-0.36141 0.92094,-0.10211 1.40579,1.28758 4.5222,6.97879 5.22937,8.0993 0.25919,0.41069 -0.11734,0.42503 -0.71926,0.43874 -1.68617,0.0384 -7.71056,-0.85484 -10.86663,-1.51483 -0.56683,-0.11853 -0.67454,-0.25003 -0.27518,-0.68605 z"
       fill="#6fa63d"
       stroke="#62742b"
       stroke-width="1.70141"
       id="path6"
       style="mix-blend-mode:normal;fill-rule:nonzero;stroke-linecap:butt;stroke-linejoin:miter;stroke-miterlimit:10;stroke-dasharray:none;stroke-dashoffset:0" />
    <g
       id="g9"
       style="mix-blend-mode:normal;fill-rule:nonzero;stroke-width:0.486117;stroke-linecap:butt;stroke-linejoin:miter;stroke-miterlimit:10;stroke-dasharray:none;stroke-dashoffset:0">
      <path
         d="m 321.54109,173.47411 c -6.67436,-4.21164 -10.76224,-16.84376 -3.26231,-18.18893 7.49992,-1.34517 21.23558,3.84926 23.16718,14.61885 1.9316,10.76959 -13.23049,7.78172 -19.90486,3.57008 z"
         fill="#6fa63d"
         stroke="#62742b"
         stroke-width="1.70141"
         id="path7" />
      <path
         d="m 314.49223,158.06082 c 0,0 0.3035,-3.08985 3.4483,-3.20043 4.53982,-0.15963 12.71988,2.8331 15.30556,4.63231 2.49233,1.73426 7.15737,7.58688 8.35788,11.75695 0.8135,2.82576 -1.41086,4.69483 -1.41086,4.69483 0,0 -6.62845,-8.67856 -10.87882,-11.63613 -4.3156,-3.00296 -14.82205,-6.24754 -14.82205,-6.24754 z"
         fill="#6bb02f"
         stroke="#526124"
         stroke-width="0"
         id="path8" />
      <path
         d="m 321.54109,173.47412 c -6.67436,-4.21164 -10.76224,-16.84376 -3.26231,-18.18893 7.49992,-1.34517 21.23558,3.84926 23.16718,14.61885 1.9316,10.76959 -13.23049,7.78172 -19.90486,3.57008 z"
         fill="none"
         stroke="#62742b"
         stroke-width="1.70141"
         id="path9" />
      <path
         id="path13"
         style="color:#000000;fill:#2668ad;-inkscape-stroke:none;fill-opacity:0.49803922"
         d="M 320.52818 154.2228 C 319.68837 154.23728 318.8842 154.31209 318.12932 154.4475 C 316.01339 154.827 314.55419 156.11731 313.89447 157.79145 C 313.23475 159.46558 313.28138 161.46131 313.76801 163.50186 C 314.74127 167.58296 317.49269 171.92475 321.0882 174.19358 C 324.59447 176.40609 330.10618 178.23538 334.73404 178.15854 C 337.04798 178.12014 339.18784 177.60156 340.66986 176.22062 C 342.15189 174.83969 342.79921 172.62965 342.28337 169.75363 C 341.25991 164.04734 337.12484 159.86507 332.35324 157.30318 C 328.77454 155.38176 324.82754 154.32925 321.37914 154.22849 C 321.09178 154.22009 320.80811 154.21797 320.52818 154.2228 z " />
    </g>
    <path
       id="path11"
       style="color:#000000;fill:#2668ad;stroke-miterlimit:10;-inkscape-stroke:none;fill-opacity:0.49803922"
       d="M 307.3102 178.76722 C 302.90726 178.76722 298.74447 182.25043 298.74447 186.68006 C 298.74447 188.8958 299.928 190.53498 301.56453 191.44711 C 303.20107 192.35923 305.25259 192.67206 307.3102 192.67205 C 309.5103 192.67205 311.70743 191.78885 313.40005 190.39092 C 315.09268 188.993 316.31044 187.03599 316.31044 184.84928 C 316.31044 182.66353 314.99888 181.02841 313.2717 180.08792 C 311.54452 179.14744 309.39059 178.76722 307.3102 178.76722 z " />
    <path
       id="path15"
       style="color:#000000;fill:#2668ad;stroke-miterlimit:10;-inkscape-stroke:none;fill-opacity:0.49803922"
       d="M 303.71333 164.08494 C 303.66298 164.08647 303.6125 164.0901 303.56406 164.09726 C 303.17654 164.15456 302.85526 164.34882 302.61326 164.61303 L 296.90277 170.84774 C 296.77568 170.98649 296.66321 171.11815 296.56239 171.32273 C 296.46157 171.5273 296.37634 171.90789 296.53482 172.24618 C 296.69325 172.58448 296.95453 172.71871 297.13287 172.79513 C 297.31122 172.87153 297.46382 172.90616 297.63109 172.94114 C 299.24 173.27759 301.5423 173.6675 303.6696 173.97078 C 305.79689 174.27406 307.67547 174.49736 308.69171 174.47422 C 308.99538 174.46722 309.23503 174.52336 309.67959 174.33959 C 309.90185 174.24769 310.26192 173.9361 310.31662 173.54318 C 310.37132 173.15025 310.22683 172.91384 310.11125 172.73066 C 309.80358 172.24316 308.82006 170.49732 307.76753 168.75812 C 306.71499 167.01892 305.66876 165.31341 304.73639 164.45944 C 304.45435 164.20111 304.06579 164.0742 303.71333 164.08494 z " />
    <path
       id="path17"
       style="color:#000000;fill:#2668ad;stroke-miterlimit:10;-inkscape-stroke:none;fill-opacity:0.49803922"
       d="M 331.78657 185.5376 C 330.99751 185.55062 330.27172 186.10937 330.13123 186.85356 C 329.87051 188.23532 328.4019 196.0128 327.98053 198.24593 C 327.88083 198.77429 328.15985 199.27693 328.46638 199.54293 C 328.77291 199.80892 329.12089 199.94857 329.48849 200.01793 C 330.1389 200.14065 330.49107 199.90843 330.98219 199.66998 C 331.47331 199.43153 332.02931 199.09554 332.64799 198.68585 C 333.88535 197.86647 335.35568 196.75009 336.78871 195.57039 C 338.22175 194.39071 339.61421 193.15136 340.68508 192.08233 C 341.22051 191.54782 341.67475 191.05896 342.0238 190.62321 C 342.37285 190.18746 342.64442 189.88496 342.75021 189.32431 C 342.85786 188.75387 342.61453 188.26795 342.30904 187.93155 C 342.00356 187.59515 341.60114 187.35496 341.11959 187.26409 L 332.12695 185.56604 C 332.01318 185.54458 331.89929 185.53574 331.78657 185.5376 z " />
    <path
       id="path19"
       style="color:#000000;fill:#2668ad;stroke-miterlimit:10;-inkscape-stroke:none;fill-opacity:0.49803922"
       d="M 315.43571 195.31441 C 314.92866 195.31937 314.42376 195.35674 313.92775 195.42344 C 311.28234 195.77914 308.83491 196.91919 307.38912 198.55501 C 306.61476 199.43114 306.35263 200.53071 306.5933 201.50171 C 306.83397 202.47271 307.48088 203.29429 308.31234 203.97056 C 309.97525 205.32311 312.45404 206.16533 314.8871 205.96916 C 317.25173 205.77851 319.86239 204.84879 321.56074 203.37136 C 322.40992 202.63265 323.06094 201.71166 323.15048 200.61523 C 323.23998 199.51882 322.70081 198.38934 321.61494 197.42962 C 319.87137 195.88858 317.63291 195.29288 315.43571 195.31441 z " />
  </g>
</svg>
<!--rotationCenter:24.219504868810816:26.4648201425141-->

<svg xmlns="http://www.w3.org/2000/svg" width="95.168" height="106.662"><g style="stroke-width:.486117"><path fill="#6bb02f" stroke="#62742b" stroke-width="1.701" d="M321.052 198.068c3.822 3.377-1.874 6.702-6.234 7.053-4.36.352-9.29-3.178-6.793-6.003s9.205-4.428 13.027-1.05z" style="mix-blend-mode:normal;fill-rule:nonzero;stroke-linecap:butt;stroke-linejoin:miter;stroke-miterlimit:10;stroke-dasharray:none;stroke-dashoffset:0" transform="matrix(2.0542 0 0 2.06004 -608.961 -317.701)"/><path fill="#6fa63d" stroke="#62742b" stroke-width="1.701" d="M315.46 184.849c0 3.732-4.217 6.973-8.15 6.973s-7.714-1.264-7.714-5.143 3.768-7.06 7.714-7.06c3.945 0 8.15 1.497 8.15 5.23zM340.962 188.1c.556.104 1.037.616.952 1.066-.317 1.679-10.7 10.31-12.268 10.015-.48-.09-.9-.397-.83-.778l2.15-11.392c.078-.41.47-.71 1.002-.609zM297.53 171.423l5.711-6.235c.247-.27.638-.361.921-.102 1.406 1.288 4.522 6.979 5.23 8.1.259.41-.118.424-.72.438-1.686.038-7.71-.855-10.866-1.515-.567-.118-.675-.25-.275-.686z" style="mix-blend-mode:normal;fill-rule:nonzero;stroke-linecap:butt;stroke-linejoin:miter;stroke-miterlimit:10;stroke-dasharray:none;stroke-dashoffset:0" transform="matrix(2.0542 0 0 2.06004 -608.961 -317.701)"/><g style="mix-blend-mode:normal;fill-rule:nonzero;stroke-width:.486117;stroke-linecap:butt;stroke-linejoin:miter;stroke-miterlimit:10;stroke-dasharray:none;stroke-dashoffset:0"><path fill="#6fa63d" stroke="#62742b" stroke-width="1.701" d="M321.541 173.474c-6.674-4.212-10.762-16.844-3.262-18.189s21.235 3.85 23.167 14.619-13.23 7.782-19.905 3.57z" transform="matrix(2.0542 0 0 2.06004 -608.961 -317.701)"/><path fill="#6bb02f" d="M37.068 7.91s.623-6.365 7.083-6.593c9.326-.328 26.13 5.837 31.44 9.543 5.12 3.573 14.704 15.63 17.17 24.22 1.67 5.821-2.899 9.671-2.899 9.671s-13.616-17.878-22.347-23.97C58.65 14.594 37.068 7.91 37.068 7.91"/><path fill="none" stroke="#62742b" stroke-width="1.701" d="M321.541 173.474c-6.674-4.212-10.762-16.844-3.262-18.189s21.235 3.85 23.167 14.619-13.23 7.782-19.905 3.57z" transform="matrix(2.0542 0 0 2.06004 -608.961 -317.701)"/><path d="M320.528 154.223c-.84.014-1.644.09-2.399.224-2.116.38-3.575 1.67-4.235 3.344-.66 1.675-.613 3.67-.126 5.71.973 4.082 3.725 8.424 7.32 10.693 3.506 2.212 9.018 4.041 13.646 3.965 2.314-.039 4.454-.557 5.936-1.938s2.13-3.591 1.613-6.467c-1.023-5.707-5.158-9.889-9.93-12.45-3.578-1.922-7.525-2.975-10.974-3.076q-.43-.012-.85-.005" style="color:#000;fill:#2668ad;-inkscape-stroke:none;fill-opacity:.49803922" transform="matrix(2.0542 0 0 2.06004 -608.961 -317.701)"/></g><path d="M307.31 178.767c-4.403 0-8.566 3.483-8.566 7.913 0 2.216 1.184 3.855 2.82 4.767 1.637.912 3.689 1.225 5.746 1.225 2.2 0 4.397-.883 6.09-2.281s2.91-3.355 2.91-5.542c0-2.185-1.311-3.82-3.038-4.761-1.727-.94-3.881-1.32-5.962-1.32M303.713 164.085q-.075.001-.149.012a1.6 1.6 0 0 0-.95.516l-5.711 6.235c-.127.138-.24.27-.34.475s-.187.585-.028.923c.158.338.42.473.598.55.178.076.33.11.498.145 1.609.337 3.911.726 6.039 1.03 2.127.303 4.005.526 5.022.503.303-.007.543.05.988-.134.222-.092.582-.404.637-.797.054-.393-.09-.63-.206-.812-.307-.488-1.29-2.234-2.343-3.973-1.053-1.74-2.1-3.445-3.032-4.299a1.48 1.48 0 0 0-1.023-.374M331.787 185.538c-.79.013-1.515.571-1.656 1.316-.26 1.381-1.73 9.159-2.15 11.392-.1.528.179 1.03.485 1.297.307.266.655.406 1.022.475.65.123 1.003-.11 1.494-.348s1.047-.574 1.666-.984c1.237-.82 2.708-1.936 4.14-3.116 1.434-1.18 2.826-2.419 3.897-3.488a18 18 0 0 0 1.339-1.459c.349-.436.62-.738.726-1.299.108-.57-.135-1.056-.441-1.392a2.12 2.12 0 0 0-1.19-.668l-8.992-1.698a1.7 1.7 0 0 0-.34-.028M315.436 195.314q-.762.008-1.508.11c-2.646.355-5.093 1.495-6.539 3.131-.774.876-1.036 1.976-.796 2.947.241.97.888 1.792 1.72 2.469 1.662 1.352 4.141 2.194 6.574 1.998 2.365-.19 4.975-1.12 6.674-2.598.849-.738 1.5-1.66 1.59-2.756.089-1.096-.45-2.226-1.536-3.185-1.744-1.541-3.982-2.137-6.18-2.116" style="color:#000;fill:#2668ad;stroke-miterlimit:10;-inkscape-stroke:none;fill-opacity:.49803922" transform="matrix(2.0542 0 0 2.06004 -608.961 -317.701)"/></g></svg>
